svgs/sharp-light/arrow-up-wide-short.svg

<svg xmlns="http://www.w3.org/2000/svg" viewBox="0 0 576 512"><!--! Font Awesome Pro 6.6.0 by @fontawesome - https://fontawesome.com License - https://fontawesome.com/license (Commercial License) Copyright 2024 Fonticons, Inc. --><path d="M139.3 44.7L128 33.4 116.7 44.7l-88 88L17.4 144 40 166.6l11.3-11.3L112 94.6 112 464l0 16 32 0 0-16 0-369.4 60.7 60.7L216 166.6 238.6 144l-11.3-11.3-88-88zM304 464l64 0 16 0 0-32-16 0-64 0-16 0 0 32 16 0zm0-128l128 0 16 0 0-32-16 0-128 0-16 0 0 32 16 0zm0-128l192 0 16 0 0-32-16 0-192 0-16 0 0 32 16 0zm0-128l256 0 16 0 0-32-16 0L304 48l-16 0 0 32 16 0z"/></svg>

<svg xmlns="http://www.w3.org/2000/svg" viewBox="0 0 576 512"><!--! Font Awesome Pro 6.4.0 by @fontawesome - https://fontawesome.com License - https://fontawesome.com/license (Commercial License) Copyright 2023 Fonticons, Inc. --><path d="M139.3 44.7L128 33.4 116.7 44.7l-88 88L17.4 144 40 166.6l11.3-11.3L112 94.6V464v16h32V464 94.6l60.7 60.7L216 166.6 238.6 144l-11.3-11.3-88-88zM304 464h64 16V432H368 304 288v32h16zm0-128H432h16V304H432 304 288v32h16zm0-128H496h16V176H496 304 288v32h16zm0-128H560h16V48H560 304 288V80h16z"/></svg>
